src/images/Tools/ReactNative.svg

<svg fill="none" height="50" viewBox="0 0 50 50" width="50" xmlns="http://www.w3.org/2000/svg" xmlns:xlink="http://www.w3.org/1999/xlink"><clipPath id="a"><path d="m0 0h50v50h-50z"/></clipPath><mask id="b" height="30" maskUnits="userSpaceOnUse" width="34" x="8" y="10"><path d="m8 10h33.7186v30h-33.7186z" fill="#fff"/></mask><g clip-path="url(#a)"><path d="m0 0h50v50h-50z" fill="#2a2c33"/><g mask="url(#b)"><path d="m24.857 28.0053c1.6598 0 3.0053-1.3455 3.0053-3.0053s-1.3455-3.0054-3.0053-3.0054-3.0054 1.3456-3.0054 3.0054 1.3456 3.0053 3.0054 3.0053z" fill="#61dafb"/><g stroke="#61dafb"><path d="m24.8567 31.1574c8.9063 0 16.1263-2.7567 16.1263-6.1573s-7.22-6.1573-16.1263-6.1573-16.12623 2.7567-16.12623 6.1573 7.21993 6.1573 16.12623 6.1573z"/><path d="m19.527 28.0786c4.4531 7.713 10.4505 12.5874 13.3955 10.8871s1.7224-9.3314-2.7307-17.0445c-4.4532-7.713-10.4506-12.58733-13.3956-10.8871-2.945 1.7003-1.7224 9.3314 2.7308 17.0445z"/><path d="m19.5231 21.9213c-4.4532 7.7131-5.6758 15.3441-2.7308 17.0444s8.9424-3.174 13.3956-10.8871c4.4531-7.7131 5.6757-15.3441 2.7307-17.0444-2.945-1.70037-8.9424 3.174-13.3955 10.8871z"/></g></g><path d="m33 30h8.7277v12h-8.7277z" fill="#2a2c33"/><g stroke="#fff" stroke-linecap="round" stroke-linejoin="round" stroke-miterlimit="10"><path d="m33 38.7271h8.7269"/><path d="m35.1797 40.0288h4.3617"/><path d="m40.0904 42h-5.4539c-.434 0-.8503-.1724-1.1572-.4793s-.4793-.7232-.4793-1.1572v-8.727c0-.434.1724-.8503.4793-1.1572s.7232-.4793 1.1572-.4793h5.4546c.4341 0 .8503.1724 1.1572.4793s.4794.7232.4794 1.1572v8.727c0 .2149-.0424.4278-.1247.6264s-.2029.3791-.3549.531c-.1521.152-.3326.2725-.5312.3547s-.4115.1245-.6265.1244z"/></g></g></svg>

<svg width="50" height="50" viewBox="0 0 50 50" fill="none" xmlns="http://www.w3.org/2000/svg">
<rect width="50" height="50" fill="#2A2C33"/>
<g clip-path="url(#clip0_265_3670)">
<path d="M24.8589 28.0053C26.5187 28.0053 27.8642 26.6598 27.8642 25C27.8642 23.3402 26.5187 21.9946 24.8589 21.9946C23.1991 21.9946 21.8535 23.3402 21.8535 25C21.8535 26.6598 23.1991 28.0053 24.8589 28.0053Z" fill="#61DAFB"/>
<path d="M24.8587 31.1573C33.765 31.1573 40.985 28.4006 40.985 25C40.985 21.5994 33.765 18.8427 24.8587 18.8427C15.9524 18.8427 8.73242 21.5994 8.73242 25C8.73242 28.4006 15.9524 31.1573 24.8587 31.1573Z" stroke="#61DAFB"/>
<path d="M19.5273 28.0787C23.9804 35.7917 29.9778 40.6661 32.9228 38.9658C35.8678 37.2655 34.6452 29.6344 30.1921 21.9213C25.7389 14.2083 19.7415 9.33393 16.7965 11.0342C13.8515 12.7345 15.0741 20.3656 19.5273 28.0787Z" stroke="#61DAFB"/>
<path d="M19.526 21.9214C15.0728 29.6345 13.8502 37.2655 16.7952 38.9658C19.7402 40.6661 25.7376 35.7918 30.1908 28.0787C34.6439 20.3656 35.8665 12.7346 32.9215 11.0343C29.9765 9.33397 23.9791 14.2083 19.526 21.9214Z" stroke="#61DAFB"/>
</g>
<rect width="8.72766" height="12" transform="translate(33 30)" fill="#2A2C33"/>
<path d="M33 38.7269H41.7269" stroke="white" stroke-miterlimit="10" stroke-linecap="round" stroke-linejoin="round"/>
<path d="M35.1816 40.0287H39.5433" stroke="white" stroke-miterlimit="10" stroke-linecap="round" stroke-linejoin="round"/>
<path d="M40.0904 42H34.6365C34.2025 42 33.7862 41.8276 33.4793 41.5207C33.1724 41.2138 33 40.7975 33 40.3635V31.6365C33 31.2025 33.1724 30.7862 33.4793 30.4793C33.7862 30.1724 34.2025 30 34.6365 30H40.0911C40.5252 30 40.9414 30.1724 41.2483 30.4793C41.5552 30.7862 41.7277 31.2025 41.7277 31.6365V40.3635C41.7277 40.5784 41.6853 40.7913 41.603 40.9899C41.5207 41.1885 41.4001 41.369 41.2481 41.5209C41.096 41.6729 40.9155 41.7934 40.7169 41.8756C40.5183 41.9578 40.3054 42.0001 40.0904 42Z" stroke="white" stroke-miterlimit="10" stroke-linecap="round" stroke-linejoin="round"/>
<defs>
<clipPath id="clip0_265_3670">
<rect width="33.7186" height="30" fill="white" transform="translate(8 10)"/>
</clipPath>
</defs>
</svg>
